X:1
T:Partition sans titre
C:Compositeur / Arrangeur
L:1/8
M:4/4
I:linebreak $
K:D
V:1 treble nm="Violon" snm="Vln."
V:1
 c |"A" B2 A2 EEAE | EAEE AEEc | B2 A2"D" FFdF | FeFF dFFc |"A" B2 A2 EEAE | EAEE AEEc | %7
 B2 A2"D" d2 AA | BAFA d3 :: c |"A" B2 A2 ccAc | eAce a3 b | a2 g2"D" ffdf | adfa [dd']AAc | %14
"A" B2 A2 ccAc | eAce a3 A | B2 c2"D" d2 AA | BAFA d3 :| %18
